svgs/regular/cabinet-filing.svg

<svg xmlns="http://www.w3.org/2000/svg" viewBox="0 0 448 512"><!--! Font Awesome Pro 6.6.0 by @fontawesome - https://fontawesome.com License - https://fontawesome.com/license (Commercial License) Copyright 2024 Fonticons, Inc. --><path d="M400 232L48 232 48 64c0-8.8 7.2-16 16-16l320 0c8.8 0 16 7.2 16 16l0 168zM0 256l0 24L0 448c0 35.3 28.7 64 64 64l320 0c35.3 0 64-28.7 64-64l0-168 0-24 0-24 0-168c0-35.3-28.7-64-64-64L64 0C28.7 0 0 28.7 0 64L0 232l0 24zM400 448c0 8.8-7.2 16-16 16L64 464c-8.8 0-16-7.2-16-16l0-168 352 0 0 168zM160 152l0-8 128 0 0 8c0 13.3 10.7 24 24 24s24-10.7 24-24l0-16c0-22.1-17.9-40-40-40L152 96c-22.1 0-40 17.9-40 40l0 16c0 13.3 10.7 24 24 24s24-10.7 24-24zm-8 184c-22.1 0-40 17.9-40 40l0 16c0 13.3 10.7 24 24 24s24-10.7 24-24l0-8 128 0 0 8c0 13.3 10.7 24 24 24s24-10.7 24-24l0-16c0-22.1-17.9-40-40-40l-144 0z"/></svg>

<svg xmlns="http://www.w3.org/2000/svg" viewBox="0 0 448 512"><!--! Font Awesome Pro 6.5.2 by @fontawesome - https://fontawesome.com License - https://fontawesome.com/license (Commercial License) Copyright 2024 Fonticons, Inc. --><path d="M400 232H48V64c0-8.8 7.2-16 16-16H384c8.8 0 16 7.2 16 16V232zM0 256v24V448c0 35.3 28.7 64 64 64H384c35.3 0 64-28.7 64-64V280 256 232 64c0-35.3-28.7-64-64-64H64C28.7 0 0 28.7 0 64V232v24zM400 448c0 8.8-7.2 16-16 16H64c-8.8 0-16-7.2-16-16V280H400V448zM160 152v-8H288v8c0 13.3 10.7 24 24 24s24-10.7 24-24V136c0-22.1-17.9-40-40-40H152c-22.1 0-40 17.9-40 40v16c0 13.3 10.7 24 24 24s24-10.7 24-24zm-8 184c-22.1 0-40 17.9-40 40v16c0 13.3 10.7 24 24 24s24-10.7 24-24v-8H288v8c0 13.3 10.7 24 24 24s24-10.7 24-24V376c0-22.1-17.9-40-40-40H152z"/></svg>
